X: 154
T: Shucking The Brush
C:Earl White
B: canberra pickers and fiddlers
B: old time tunes update
B: tunes
M:C|
L:1/8
R: reel
Q: 1/4=100
K:D
V:1 
A,B, |\
D2FD EDFE | DEFD EDB,C | DDFD EDB,A, | B,A,B,C D2 :::|
D2 |:\
A4 A2A2 | B4 B2B2 | d3d d2Bd- | dcdd BAFG | ABAG FD3 | 
A4 A2A2 | B4 B2B2 | [f6d6] fa- | afgf edAB | dBAF [1 DFAF :|[2 D2 |]
% abcbook-tune_id 67a7d9ec8dcaf300dafd6eed
% abcbook-tune_composer_id 
% abcbook-link-0 https://www.youtube.com/watch?v=XP60sBJhKhw
% abcbook-link-title-0 Shucking the Brush
% abcbook-boost 0
% abcbook-difficulty 0
% abcbook-tags old time tunes
% abcbook-tablature 
% abcbook-transpose 
% abcbook-tuning ADAE
% abcbook-lastupdated 1739237907938
% abcbook-src-url 
% abcbook-soundfonts 
% abcbook-repeats 1


